X:8281
T:Jour d'\'ete
T:Schottische
R:Schottische
O:France
M:4/4
C:Fr\'ed\'eric Paris
K:G
BdcA B2G2|BdBAG3D|EFG2-GAB2\
|1cBAcB2G2:|2cBAFG4:|\
efefe3f|efefd4|edc2-cBAB\
|1cBAcB2G2:|2cBAFG4:|


